X: 1
T: Goodnight and Joy Be With You
C: Trad.
R: reel
Z: 2014 John Chambers <jc:trillian.mit.edu>
S: PDF image of set for The Flowers of Edinburgh from George Meikle 2012
M: C|
L: 1/8
K: G
BA |\
"G"G2G2 "B/G7"D3G | "C"E2E2 "D7"e3d | "G"Bded "G#/E7"Bded | "Am"B2A2 "F#/D7"AcBA |\
"G"G2G2 "B/G7"D3G | "C"E2E2 "D7"e3d | "G"Bded "F#/D7"Bded | "G"B2G2 G2 :|
|: "D7"B2 |\
"C"ABAG "A7"E2GE | "G"DEGA "Em"B2AG | "Am"A2AB "G#/E7"cBcd | "Am"e2A2 "E7"A3B |\
"Am"cBcd "D7"e2dc | "G"BABc "G#/E7"d2cB | "Am"A2Ac "B7"BAGF | "Em"G2E2 E2 :|
